!!!!SEGMENT: pl-stab--77a--006_wygrzywalski-jozef--msza-agnus-dei.krn
!!!cenid: 18xx:3416
!!!COM: Wygrzywalski, Józef
!!!COM-rismID: pe30109448
!!!CDT: 1798-~1857
!!!CNT: Polish
!!!OPR: Msza
!!!OTL: Agnus Dei
!!!OMV: 006
!!!PDT:
!!!AGN:
!!!SMS-siglum: PL-STAb
!!!SMS-shelfmark: 77a
!!!SMS-shelfwork: 001-006 M
!!!SMS-variant:
!!!SMS-altvar:
!!!NIFC-rismSourceID: 1001167521
!!!NIFC-rismChildID: 1001167521
!!!NIFC-islandoraID: pl-stab:4717
!!!URL-pdf-islandora: https://repozytorium.nifc.pl/islandora/object/pl-stab%3A4717/datastream/PDF/view
!!!URL-scan: https://polish.musicsources.pl/pl/lokalizacje/galeria/rekopisy/4558 @EN{Scan on Polish Music Sources Website} @PL{Skany w portalu Dziedzictwo Muzyki Polskiej w otwartym dostępie}
!!!ONB-nifc: UWAGA: części Mszy: 1. Kyrie, 2. Gloria, 3. Credo, 4. Sanctus, 5. Benedictus, 6. Agnus Dei. Na f. 1r głosu cl 2 zapisana partytura org dla części Gloria, pochodzącej z innej mszy.
!!!AIN: 1 alto 1 bass 2 clars 2 cor 1 organ 1 soprn 2 violn
!!!key: f
**kern	**dynam	**fba	**kern	**kern	**kern	**text	**kern	**text	**dynam	**kern	**text	**kern	**kern	**dynam	**kern	**kern	**dynam
*group5	*	*	*group4	*group4	*group3	*	*group3	*	*	*group3	*	*group2	*group2	*	*group1	*group1	*
*part10	*part10	*	*part9	*part8	*part7	*part7	*part6	*part6	*part6	*part5	*part5	*part4	*part3	*part3	*part2	*part1	*part1
*staff10	*	*	*staff9	*staff8	*staff7	*staff7	*staff6	*staff6	*	*staff5	*staff5	*staff4	*staff3	*	*staff2	*staff1	*
*I"Organo	*	*	*I"Violino II	*I"Violino primo	*I"Baſso	*	*I"alto	*	*	*I"Canto	*	*I"Corno 2do in F	*I"Corno 1mo in F	*	*I"Clarinetto 2 do	*I"Clarinetto 1 m in C	*
*I'[Org]	*	*	*I'[Vl 2]	*I'[Vl 1]	*I'[B]	*	*I'[A]	*	*	*I'[S]	*	*I'[Cor 2 in F]	*I'[Cor 1 in F]	*	*I'[Cl 2 in C]	*I'[Cl 1 in C]	*
*Iorgan	*	*	*Ivioln	*Ivioln	*Ibass	*	*Ialto	*	*	*Isoprn	*	*Icor	*Icor	*	*Iclars	*Iclars	*
*ICklav	*	*	*ICstr	*ICstr	*ICvox	*	*ICvox	*	*	*ICvox	*	*ICbras	*ICbras	*	*ICww	*ICww	*
*IGcont	*	*	*IGacmp	*IGacmp	*IGcoro	*	*IGcoro	*	*	*IGcoro	*	*IGacmp	*IGacmp	*	*IGacmp	*IGacmp	*
*clefF4	*	*	*clefG2	*clefG2	*clefF4	*	*clefC3	*	*	*clefC1	*	*clefG2	*clefG2	*	*clefG2	*clefG2	*
*	*	*	*	*	*	*	*	*	*	*	*	*ITrd4c7	*ITrd4c7	*	*	*	*
*k[b-e-a-d-]	*	*	*k[b-e-a-d-]	*k[b-e-a-d-]	*k[b-e-a-d-]	*	*k[b-e-a-d-]	*	*	*k[b-e-a-d-]	*	*k[b-]	*k[b-]	*	*k[b-]	*k[b-]	*
*f:	*	*	*f:	*f:	*f:	*	*f:	*	*	*f:	*	*f:	*f:	*	*f:	*f:	*
*kcancel	*	*	*kcancel	*kcancel	*kcancel	*	*kcancel	*	*	*kcancel	*	*kcancel	*kcancel	*	*kcancel	*kcancel	*
*M3/4	*	*	*M3/4	*M3/4	*M3/4	*	*M3/4	*	*	*M3/4	*	*M3/4	*M3/4	*	*M3/4	*M3/4	*
=1	=1	=1	=1	=1	=1	=1	=1	=1	=1	=1	=1	=1	=1	=1	=1	=1	=1
*	*	*	*	*	*2\right	*	*	*	*	*	*	*	*	*	*	*	*
!	!	!	!	!	!LO:TX:t=P:problem=w taktach 1-8 brak tekstu	!	!	!	!	!	!	!	!	!	!	!	!
!	!	!	!	!	!LO:TX:a:B:t=adagio	!	!LO:TX:a:t=8	!	!	!LO:TX:a:B:t=adagio	!	!LO:TX:a:B:t=adagio	!LO:TX:a:t=5	!	!LO:TX:a:t=5	!LO:TX:a:t=5	!
!LO:TX:a:B:t=adagio	!LO:DY:b	!	!LO:TX:a:B:t=adagio	!LO:TX:a:B:t=adagio	!LO:TX:t=P:problem=all\right&colon; global	!	!LO:TX:a:B:t=adagio	!	!	!LO:TX:a:t=8	!	!LO:TX:b:t=8	!LO:TX:b:t=5	!	!LO:TX:a:B:t=adagio	!LO:TX:a:B:t=Adagio	!
!	!	!	!LO:TUP:b:global	!LO:TUP:b	!	!	!	!	!	!	!	!	!	!	!	!	!
4F\	p	3	12f/L	12a-/L	2F\	.	0.r	.	.	0.r	.	0.r	0.r	.	0.r	0.r	.
.	.	.	12f/	12a-/	.	.	.	.	.	.	.	.	.	.	.	.	.
.	.	.	12f/J	12a-/J	.	.	.	.	.	.	.	.	.	.	.	.	.
*	*	*	*rep	*Xtuplet	*	*	*	*	*	*	*	*	*	*	*	*	*
8.r	.	.	12f/L	12a-/L	.	.	.	.	.	.	.	.	.	.	.	.	.
.	.	.	12f/	12a-/	.	.	.	.	.	.	.	.	.	.	.	.	.
.	.	.	12f/J	12a-/J	.	.	.	.	.	.	.	.	.	.	.	.	.
*	*	*	*Xrep	*	*	*	*	*	*	*	*	*	*	*	*	*	*
*	*	*	*rep	*	*	*	*	*	*	*	*	*	*	*	*	*	*
!LO:TX:a:t=unison	!	!	!	!	!	!	!	!	!	!	!	!	!	!	!	!	!
32F\LLL	.	.	.	.	.	.	.	.	.	.	.	.	.	.	.	.	.
32G\JJJ	.	.	.	.	.	.	.	.	.	.	.	.	.	.	.	.	.
8.A-\L	.	.	12f/L	12a-/L	4A-\	.	.	.	.	.	.	.	.	.	.	.	.
.	.	.	12f/	12a-/	.	.	.	.	.	.	.	.	.	.	.	.	.
.	.	.	12f/J	12a-/J	.	.	.	.	.	.	.	.	.	.	.	.	.
16F\Jk	.	.	.	.	.	.	.	.	.	.	.	.	.	.	.	.	.
*	*	*	*Xrep	*	*	*	*	*	*	*	*	*	*	*	*	*	*
=2	=2	=2	=2	=2	=2	=2	=2-	=2	=2	=2-	=2	=2-	=2-	=2	=2-	=2-	=2
4d-X\	.	.	12f/L	12a-/L	4d-\	.	.	.	.	.	.	.	.	.	.	.	.
.	.	.	12f/	12a-/	.	.	.	.	.	.	.	.	.	.	.	.	.
.	.	.	12f/J	12a-/J	.	.	.	.	.	.	.	.	.	.	.	.	.
*	*	*	*rep	*	*	*	*	*	*	*	*	*	*	*	*	*	*
4c\	.	.	12f/L	12a-/L	4c\	.	.	.	.	.	.	.	.	.	.	.	.
.	.	.	12f/	12a-/	.	.	.	.	.	.	.	.	.	.	.	.	.
.	.	.	12f/J	12a-/J	.	.	.	.	.	.	.	.	.	.	.	.	.
*	*	*	*Xrep	*	*	*	*	*	*	*	*	*	*	*	*	*	*
*	*	*	*rep	*	*	*	*	*	*	*	*	*	*	*	*	*	*
4Bn\	.	.	12f/L	12g/L	4c-X\	.	.	.	.	.	.	.	.	.	.	.	.
.	.	.	12f/	12g/	.	.	.	.	.	.	.	.	.	.	.	.	.
.	.	.	12f/J	12g/J	.	.	.	.	.	.	.	.	.	.	.	.	.
*	*	*	*Xrep	*	*	*	*	*	*	*	*	*	*	*	*	*	*
=3	=3	=3	=3	=3	=3	=3	=3-	=3	=3	=3-	=3	=3-	=3-	=3	=3-	=3-	=3
8B-\	.	.	12en/L	12g/L	4B-\	.	.	.	.	.	.	.	.	.	.	.	.
.	.	.	12e/	12g/	.	.	.	.	.	.	.	.	.	.	.	.	.
8r	.	.	.	.	.	.	.	.	.	.	.	.	.	.	.	.	.
.	.	.	12e/J	12g/J	.	.	.	.	.	.	.	.	.	.	.	.	.
8En\	.	5	12e/L	12g/L	8.G\	.	.	.	.	.	.	.	.	.	.	.	.
.	.	.	12e/	12g/	.	.	.	.	.	.	.	.	.	.	.	.	.
8r	.	.	.	.	.	.	.	.	.	.	.	.	.	.	.	.	.
.	.	.	12e/J	12g/J	.	.	.	.	.	.	.	.	.	.	.	.	.
.	.	.	.	.	16En\	.	.	.	.	.	.	.	.	.	.	.	.
*	*	*	*Xtuplet	*	*	*	*	*	*	*	*	*	*	*	*	*	*
8F\	.	3	12A-/L	12f/L	8F\	.	.	.	.	.	.	.	.	.	.	.	.
.	.	.	12A-/	12f/	.	.	.	.	.	.	.	.	.	.	.	.	.
8r	.	.	.	.	8BBn/	.	.	.	.	.	.	.	.	.	.	.	.
.	.	.	12A-/J	12f/J	.	.	.	.	.	.	.	.	.	.	.	.	.
=4	=4	=4	=4	=4	=4	=4	=4-	=4	=4	=4-	=4	=4-	=4-	=4	=4-	=4-	=4
4C/	.	6 4	12G/L 12en/	12en/L	4C/	.	.	.	.	.	.	.	.	.	.	.	.
.	.	.	12G/ 12e/	12e/	.	.	.	.	.	.	.	.	.	.	.	.	.
.	.	.	12G/J 12e/	12e/J	.	.	.	.	.	.	.	.	.	.	.	.	.
*	*	*	*rep	*	*	*	*	*	*	*	*	*	*	*	*	*	*
4C/	.	5 n3	12G/L 12e/	12e/L	4C/	.	.	.	.	.	.	.	.	.	.	.	.
.	.	.	12G/ 12e/	12e/	.	.	.	.	.	.	.	.	.	.	.	.	.
.	.	.	12G/J 12e/	12e/J	.	.	.	.	.	.	.	.	.	.	.	.	.
*	*	*	*Xrep	*	*	*	*	*	*	*	*	*	*	*	*	*	*
*	*	*	*rep	*	*	*	*	*	*	*	*	*	*	*	*	*	*
4r	.	.	12G/L 12e/	12e/L	4r	.	.	.	.	.	.	.	.	.	.	.	.
.	.	.	12G/ 12e/	12e/	.	.	.	.	.	.	.	.	.	.	.	.	.
.	.	.	12G/J 12e/	12e/J	.	.	.	.	.	.	.	.	.	.	.	.	.
*	*	*	*Xrep	*	*	*	*	*	*	*	*	*	*	*	*	*	*
=5	=5	=5	=5	=5	=5	=5	=5-	=5	=5	=5-	=5	=5-	=5-	=5	=5-	=5-	=5
*	*	*	*tremolo	*tremolo	*	*	*	*	*	*	*	*	*	*	*	*	*
4BB-/	.	6: n4:	32G/LLL 32en/	32B-/LLL 32g/	(>2En\	.	0.r	.	.	0.r	.	0.r	2.r	.	2.r	2.r	.
.	.	.	32G/ 32e/	32B-/ 32g/	.	.	.	.	.	.	.	.	.	.	.	.	.
.	.	.	32G/ 32e/	32B-/ 32g/	.	.	.	.	.	.	.	.	.	.	.	.	.
.	.	.	32G/ 32e/	32B-/ 32g/	.	.	.	.	.	.	.	.	.	.	.	.	.
.	.	.	32G/ 32e/	32B-/ 32g/	.	.	.	.	.	.	.	.	.	.	.	.	.
.	.	.	32G/ 32e/	32B-/ 32g/	.	.	.	.	.	.	.	.	.	.	.	.	.
.	.	.	32G/ 32e/	32B-/ 32g/	.	.	.	.	.	.	.	.	.	.	.	.	.
.	.	.	32G/ 32e/	32B-/ 32g/	.	.	.	.	.	.	.	.	.	.	.	.	.
4r	.	.	32G/ 32e/	32B-/ 32g/	.	.	.	.	.	.	.	.	.	.	.	.	.
.	.	.	32G/ 32e/	32B-/ 32g/	.	.	.	.	.	.	.	.	.	.	.	.	.
.	.	.	32G/ 32e/	32B-/ 32g/	.	.	.	.	.	.	.	.	.	.	.	.	.
.	.	.	32G/ 32e/	32B-/ 32g/	.	.	.	.	.	.	.	.	.	.	.	.	.
.	.	.	32G/ 32e/	32B-/ 32g/	.	.	.	.	.	.	.	.	.	.	.	.	.
.	.	.	32G/ 32e/	32B-/ 32g/	.	.	.	.	.	.	.	.	.	.	.	.	.
.	.	.	32G/ 32e/	32B-/ 32g/	.	.	.	.	.	.	.	.	.	.	.	.	.
.	.	.	32G/ 32e/	32B-/ 32g/	.	.	.	.	.	.	.	.	.	.	.	.	.
!	!	!	!	!	!LO:TUP:a:problem=klamra łukowa	!	!	!	!	!	!	!	!	!	!	!	!
4r	.	.	32G/ 32e/	32B-/ 32g/	24E\LL)	.	.	.	.	.	.	.	.	.	.	.	.
.	.	.	32G/ 32e/	32B-/ 32g/	.	.	.	.	.	.	.	.	.	.	.	.	.
.	.	.	.	.	24F\	.	.	.	.	.	.	.	.	.	.	.	.
.	.	.	32G/ 32e/	32B-/ 32g/	.	.	.	.	.	.	.	.	.	.	.	.	.
.	.	.	.	.	24G\	.	.	.	.	.	.	.	.	.	.	.	.
.	.	.	32G/ 32e/	32B-/ 32g/	.	.	.	.	.	.	.	.	.	.	.	.	.
.	.	.	32G/ 32e/	32B-/ 32g/	24A-\	.	.	.	.	.	.	.	.	.	.	.	.
.	.	.	32G/ 32e/	32B-/ 32g/	.	.	.	.	.	.	.	.	.	.	.	.	.
.	.	.	.	.	24B-\JJ	.	.	.	.	.	.	.	.	.	.	.	.
.	.	.	32G/ 32e/	32B-/ 32g/	.	.	.	.	.	.	.	.	.	.	.	.	.
.	.	.	.	.	24c\	.	.	.	.	.	.	.	.	.	.	.	.
.	.	.	32G/JJJ 32e/	32B-/JJJ 32g/	.	.	.	.	.	.	.	.	.	.	.	.	.
!	!	!	!	!LO:LB:g=original	!LO:LB:g=original	!	!	!	!	!	!	!	!	!	!	!	!
=6	=6	=6	=6	=6	=6	=6	=6-	=6	=6	=6-	=6	=6-	=6	=6	=6	=6	=6
!	!	!	!	!	!	!	!	!	!	!	!	!	!LO:TX:a:B:t=adagio in F	!	!	!LO:TX:a:B:t=adagio	!
4r	.	.	32G/LLL 32eny/	32B-/LLL 32g/	(>4d-\	.	.	.	.	.	.	.	4r	.	4r	4r	.
.	.	.	32G/ 32e/	32B-/ 32g/	.	.	.	.	.	.	.	.	.	.	.	.	.
.	.	.	32G/ 32e/	32B-/ 32g/	.	.	.	.	.	.	.	.	.	.	.	.	.
.	.	.	32G/ 32e/	32B-/ 32g/	.	.	.	.	.	.	.	.	.	.	.	.	.
.	.	.	32G/ 32e/	32B-/ 32g/	.	.	.	.	.	.	.	.	.	.	.	.	.
.	.	.	32G/ 32e/	32B-/ 32g/	.	.	.	.	.	.	.	.	.	.	.	.	.
.	.	.	32G/ 32e/	32B-/ 32g/	.	.	.	.	.	.	.	.	.	.	.	.	.
.	.	.	32G/ 32e/	32B-/ 32g/	.	.	.	.	.	.	.	.	.	.	.	.	.
8.r	.	.	32G/ 32e/	32B-/ 32g/	4En\)	.	.	.	.	.	.	.	4r	.	4r	4r	.
.	.	.	32G/ 32e/	32B-/ 32g/	.	.	.	.	.	.	.	.	.	.	.	.	.
.	.	.	32G/ 32e/	32B-/ 32g/	.	.	.	.	.	.	.	.	.	.	.	.	.
.	.	.	32G/ 32e/	32B-/ 32g/	.	.	.	.	.	.	.	.	.	.	.	.	.
.	.	.	32G/ 32e/	32B-/ 32g/	.	.	.	.	.	.	.	.	.	.	.	.	.
.	.	.	32G/ 32e/	32B-/ 32g/	.	.	.	.	.	.	.	.	.	.	.	.	.
!LO:N:vis=8.	!LO:DY:b	!	!	!	!	!	!	!	!	!	!	!	!	!	!	!	!
16D-X\KL	f	.	32G/ 32e/	32B-/ 32g/	.	.	.	.	.	.	.	.	.	.	.	.	.
.	.	.	32G/ 32e/	32B-/ 32g/	.	.	.	.	.	.	.	.	.	.	.	.	.
!	!	!	!	!	!	!	!	!	!	!	!	!	!LO:TX:t=P:4\right:problem	!	!	!	!
8.En\	.	.	32G/ 32e/	32B-/ 32g/	4r	.	.	.	.	.	.	.	4g\	.	4g/	4gg\	.
.	.	.	32G/ 32e/	32B-/ 32g/	.	.	.	.	.	.	.	.	.	.	.	.	.
.	.	.	32G/ 32e/	32B-/ 32g/	.	.	.	.	.	.	.	.	.	.	.	.	.
.	.	.	32G/ 32e/	32B-/ 32g/	.	.	.	.	.	.	.	.	.	.	.	.	.
.	.	.	32G/ 32e/	32B-/ 32g/	.	.	.	.	.	.	.	.	.	.	.	.	.
.	.	.	32G/ 32e/	32B-/ 32g/	.	.	.	.	.	.	.	.	.	.	.	.	.
16G\Jk	.	.	32G/ 32e/	32B-/ 32g/	.	.	.	.	.	.	.	.	.	.	.	.	.
.	.	.	32G/JJJ 32e/	32B-/JJJ 32g/	.	.	.	.	.	.	.	.	.	.	.	.	.
!LO:LB:g=original	!	!	!	!	!	!	!	!	!	!	!	!	!	!	!	!	!
=7	=7	=7	=7	=7	=7	=7	=7-	=7	=7	=7-	=7	=7-	=7	=7	=7	=7	=7
!	!	!	!	!	!	!	!	!	!	!	!	!	!LO:TX:a:t=1	!	!LO:TX:a:t=1	!LO:TX:a:t=1	!
4B-\	.	.	32G/LLL 32eny/	32B-/LLL 32g/	(>2En\	.	.	.	.	.	.	.	2.r	.	2.r	2.r	.
.	.	.	32G/ 32e/	32B-/ 32g/	.	.	.	.	.	.	.	.	.	.	.	.	.
.	.	.	32G/ 32e/	32B-/ 32g/	.	.	.	.	.	.	.	.	.	.	.	.	.
.	.	.	32G/ 32e/	32B-/ 32g/	.	.	.	.	.	.	.	.	.	.	.	.	.
.	.	.	32G/ 32e/	32B-/ 32g/	.	.	.	.	.	.	.	.	.	.	.	.	.
.	.	.	32G/ 32e/	32B-/ 32g/	.	.	.	.	.	.	.	.	.	.	.	.	.
.	.	.	32G/ 32e/	32B-/ 32g/	.	.	.	.	.	.	.	.	.	.	.	.	.
.	.	.	32G/ 32e/	32B-/ 32g/	.	.	.	.	.	.	.	.	.	.	.	.	.
4r	.	.	32G/ 32e/	32B-/ 32g/	.	.	.	.	.	.	.	.	.	.	.	.	.
.	.	.	32G/ 32e/	32B-/ 32g/	.	.	.	.	.	.	.	.	.	.	.	.	.
.	.	.	32G/ 32e/	32B-/ 32g/	.	.	.	.	.	.	.	.	.	.	.	.	.
.	.	.	32G/ 32e/	32B-/ 32g/	.	.	.	.	.	.	.	.	.	.	.	.	.
.	.	.	32G/ 32e/	32B-/ 32g/	.	.	.	.	.	.	.	.	.	.	.	.	.
.	.	.	32G/ 32e/	32B-/ 32g/	.	.	.	.	.	.	.	.	.	.	.	.	.
.	.	.	32G/ 32e/	32B-/ 32g/	.	.	.	.	.	.	.	.	.	.	.	.	.
.	.	.	32G/ 32e/	32B-/ 32g/	.	.	.	.	.	.	.	.	.	.	.	.	.
4r	.	.	32G/ 32e/	32B-/ 32g/	24E\LL)	.	.	.	.	.	.	.	.	.	.	.	.
.	.	.	32G/ 32e/	32B-/ 32g/	.	.	.	.	.	.	.	.	.	.	.	.	.
.	.	.	.	.	24F\	.	.	.	.	.	.	.	.	.	.	.	.
.	.	.	32G/ 32e/	32B-/ 32g/	.	.	.	.	.	.	.	.	.	.	.	.	.
.	.	.	.	.	24G\	.	.	.	.	.	.	.	.	.	.	.	.
.	.	.	32G/ 32e/	32B-/ 32g/	.	.	.	.	.	.	.	.	.	.	.	.	.
.	.	.	32G/ 32e/	32B-/ 32g/	24A-\	.	.	.	.	.	.	.	.	.	.	.	.
.	.	.	32G/ 32e/	32B-/ 32g/	.	.	.	.	.	.	.	.	.	.	.	.	.
.	.	.	.	.	24B-\JJ	.	.	.	.	.	.	.	.	.	.	.	.
.	.	.	32G/ 32e/	32B-/ 32g/	.	.	.	.	.	.	.	.	.	.	.	.	.
.	.	.	.	.	24c\	.	.	.	.	.	.	.	.	.	.	.	.
.	.	.	32G/JJJ 32e/	32B-/JJJ 32g/	.	.	.	.	.	.	.	.	.	.	.	.	.
!	!	!	!LO:LB:g=original	!	!	!	!	!	!	!	!	!	!	!	!	!	!
=8	=8	=8	=8	=8	=8	=8	=8-	=8	=8	=8-	=8	=8-	=8	=8	=8	=8	=8
4r	.	.	32d-X/LLL	32B-/LLL 32g/	4d-\	.	.	.	.	.	.	.	4r	.	4r	4r	.
.	.	.	32d-/	32B-/ 32g/	.	.	.	.	.	.	.	.	.	.	.	.	.
.	.	.	32d-/	32B-/ 32g/	.	.	.	.	.	.	.	.	.	.	.	.	.
.	.	.	32d-/	32B-/ 32g/	.	.	.	.	.	.	.	.	.	.	.	.	.
.	.	.	32d-/	32B-/ 32g/	.	.	.	.	.	.	.	.	.	.	.	.	.
.	.	.	32d-/	32B-/ 32g/	.	.	.	.	.	.	.	.	.	.	.	.	.
.	.	.	32d-/	32B-/ 32g/	.	.	.	.	.	.	.	.	.	.	.	.	.
.	.	.	32d-/	32B-/ 32g/	.	.	.	.	.	.	.	.	.	.	.	.	.
8.r	.	.	32d-/	32B-/ 32g/	4E-X\	.	.	.	.	.	.	.	4r	.	4r	4r	.
.	.	.	32d-/	32B-/ 32g/	.	.	.	.	.	.	.	.	.	.	.	.	.
.	.	.	32d-/	32B-/ 32g/	.	.	.	.	.	.	.	.	.	.	.	.	.
.	.	.	32d-/	32B-/ 32g/	.	.	.	.	.	.	.	.	.	.	.	.	.
.	.	.	32d-/	32B-/ 32g/	.	.	.	.	.	.	.	.	.	.	.	.	.
.	.	.	32d-/	32B-/ 32g/	.	.	.	.	.	.	.	.	.	.	.	.	.
16D-\KL	.	4: 2:	32d-/	32B-/ 32g/	.	.	.	.	.	.	.	.	.	.	.	.	.
.	.	.	32d-/	32B-/ 32g/	.	.	.	.	.	.	.	.	.	.	.	.	.
8.E-X\	.	.	32d-/	32B-/ 32g/	4r	.	.	.	.	.	.	.	4g\	.	4g/	4gg\	.
.	.	.	32d-/	32B-/ 32g/	.	.	.	.	.	.	.	.	.	.	.	.	.
.	.	.	32d-/	32B-/ 32g/	.	.	.	.	.	.	.	.	.	.	.	.	.
.	.	.	32d-/	32B-/ 32g/	.	.	.	.	.	.	.	.	.	.	.	.	.
.	.	.	32d-/	32B-/ 32g/	.	.	.	.	.	.	.	.	.	.	.	.	.
.	.	.	32d-/	32B-/ 32g/	.	.	.	.	.	.	.	.	.	.	.	.	.
16G\Jk	.	.	32d-/	32B-/ 32g/	.	.	.	.	.	.	.	.	.	.	.	.	.
.	.	.	32d-/JJJ	32B-/JJJ 32g/	.	.	.	.	.	.	.	.	.	.	.	.	.
*	*	*	*Xtremolo	*Xtremolo	*	*	*	*	*	*	*	*	*	*	*	*	*
=9	=9	=9	=9	=9	=9	=9	=9	=9	=9	=9	=9	=9	=9	=9	=9	=9	=9
*	*	*	*tuplet	*	*	*	*2\right	*	*	*2\right	*	*	*2\right	*	*	*2\right	*
!	!	!	!LO:TUP:b:global	!	!	!	!	!	!LO:DY:b:rj	!	!	!	!	!	!	!	!
4A-\	.	x 3	12c/L 12e-/	12a-/L	2A-\	mi-	2e-\	mi-	f	2cc\	mi-	2.c/	2.e-X\	.	2a-X/	2.cc\	.
.	.	.	12c/ 12e-/	12g/	.	.	.	.	.	.	.	.	.	.	.	.	.
.	.	.	12c/J 12e-/	12a-/J	.	.	.	.	.	.	.	.	.	.	.	.	.
*	*	*	*rep	*	*	*	*	*	*	*	*	*	*	*	*	*	*
4A-\	.	.	12c/L 12e-/	12cc/L	.	.	.	.	.	.	.	.	.	.	.	.	.
.	.	.	12c/ 12e-/	12g/	.	.	.	.	.	.	.	.	.	.	.	.	.
.	.	.	12c/J 12e-/	12a-/J	.	.	.	.	.	.	.	.	.	.	.	.	.
*	*	*	*Xrep	*	*	*	*	*	*	*	*	*	*	*	*	*	*
*	*	*	*rep	*	*	*	*	*	*	*	*	*	*	*	*	*	*
!!mixed beam:problem
!	!	!	!	!LO:TX:t=P:problem=mixed beam	!	!	!LO:TX:t=P:problem=all\right&colon; global	!	!	!LO:TX:t=P:problem=all\right&colon; global	!	!	!	!	!	!	!
4A-\	.	.	12c/L 12e-/	12ee-\L	4A-\	-se-	4e-\	-se-	.	4cc\	-se-	.	.	.	4ryy	.	.
.	.	.	12c/ 12e-/	12g/	.	.	.	.	.	.	.	.	.	.	.	.	.
.	.	.	12c/J 12e-/	12a-/J	.	.	.	.	.	.	.	.	.	.	.	.	.
*	*	*	*Xrep	*	*	*	*	*	*	*	*	*	*	*	*	*	*
=10	=10	=10	=10	=10	=10	=10	=10	=10	=10	=10	=10	=10	=10	=10	=10	=10	=10
4D-\	.	6 3	12f/L	12b-\L	2D-\	-re-	2f\	-re-	.	2b-\	-re-	2.F/	2.f\	.	2f/	2dd-X\	.
.	.	.	12f/	12an\	.	.	.	.	.	.	.	.	.	.	.	.	.
.	.	.	12f/J	12b-\J	.	.	.	.	.	.	.	.	.	.	.	.	.
*	*	*	*rep	*	*	*	*	*	*	*	*	*	*	*	*	*	*
4D-\	.	.	12f/L	12dd-\L	.	.	.	.	.	.	.	.	.	.	.	.	.
.	.	.	12f/	12a\	.	.	.	.	.	.	.	.	.	.	.	.	.
.	.	.	12f/J	12b-\J	.	.	.	.	.	.	.	.	.	.	.	.	.
*	*	*	*Xrep	*	*	*	*	*	*	*	*	*	*	*	*	*	*
*	*	*	*rep	*	*	*	*	*	*	*	*	*	*	*	*	*	*
!	!	!	!	!	!	!	!	!	!	!	!	!	!	!	!	!LO:TX:t=P:4\right:problem	!
4Dn\	.	n6 3	12f/L	12ff\L	4Dn\	-re	4a-\	-re	.	4ff\	-re	.	.	.	4f/	4ddn\	.
.	.	.	12f/	12a\	.	.	.	.	.	.	.	.	.	.	.	.	.
.	.	.	12f/J	12ff\J	.	.	.	.	.	.	.	.	.	.	.	.	.
*	*	*	*Xrep	*	*	*	*	*	*	*	*	*	*	*	*	*	*
=11	=11	=11	=11	=11	=11	=11	=11	=11	=11	=11	=11	=11	=11	=11	=11	=11	=11
*	*	*	*Xtuplet	*	*	*	*	*	*	*	*	*	*	*	*2\right	*	*
4E-\	.	6 4	12a-/L	12ee-\L	2.E-\	no-	(>2a-\	no-	.	(>4ee-\	no-	2c/	2e-X\	.	2cc\	2ee-X\	.
.	.	.	12e-/	12cc\	.	.	.	.	.	.	.	.	.	.	.	.	.
.	.	.	12c/J	12a-\J	.	.	.	.	.	.	.	.	.	.	.	.	.
4E-\	.	.	12c/L	12e-/L	.	.	.	.	.	4cc\)	.	.	.	.	.	.	.
.	.	.	12c/	12e-/	.	.	.	.	.	.	.	.	.	.	.	.	.
.	.	.	12c/J	12e-/J	.	.	.	.	.	.	.	.	.	.	.	.	.
!!mixed beam:problem
!	!	!	!	!LO:TX:t=P:problem=mixed beam	!	!	!	!	!	!	!	!	!	!	!LO:TX:t=P:4\right:problem	!	!
4E-\	.	5 3	12d-X/L	12dd-\L	.	.	4g\)	.	.	4b-\	.	4e-X\	4e-\	.	4b-\	4dd-X\	.
.	.	.	12d-/	12f/	.	.	.	.	.	.	.	.	.	.	.	.	.
.	.	.	12d-/J	12g/J	.	.	.	.	.	.	.	.	.	.	.	.	.
=12	=12	=12	=12	=12	=12	=12	=12	=12	=12	=12	=12	=12	=12	=12	=12	=12	=12
4AA-/	.	.	4c/	4a-/	4AA-/	-bis	4a-\	-bis	.	4cc\	-bis.	4c/	4e-X\	.	4a-X/	4cc\	.
4r	.	.	4r	8.ccc\L	4r	.	4r	.	.	4r	.	4r	4r	.	4r	4r	.
.	.	.	.	16gg\Jk	.	.	.	.	.	.	.	.	.	.	.	.	.
4r	.	.	4r	16bb-\KL	4r	.	4r	.	.	4r	.	4r	4r	.	4r	4r	.
.	.	.	.	8aa-\	.	.	.	.	.	.	.	.	.	.	.	.	.
.	.	.	.	16ff\Jk	.	.	.	.	.	.	.	.	.	.	.	.	.
!	!	!	!	!	!LO:LB:g=original	!	!	!	!	!	!	!	!	!	!	!	!
=13	=13	=13	=13	=13	=13	=13	=13	=13	=13	=13	=13	=13	=13	=13	=13	=13	=13
*	*	*	*	*2\right	*	*	*	*	*	*	*	*	*	*	*	*	*
!	!	!	!	!	!LO:TX:a:t=4	!	!LO:TX:a:t=4	!	!	!LO:TX:a:t=4	!	!LO:TX:a:t=4	!LO:TX:a:t=4	!	!LO:TX:a:t=4	!LO:TX:a:t=4	!
8r	.	.	8r	2.ee-\	0.r	.	0.r	.	.	0.r	.	0.r	0.r	.	0.r	0.r	.
16E-\LL	.	8: 3	16g/LL	.	.	.	.	.	.	.	.	.	.	.	.	.	.
16F\JJ	.	x 3	16a-/JJ	.	.	.	.	.	.	.	.	.	.	.	.	.	.
8G\L	.	x 3	8b-\L	.	.	.	.	.	.	.	.	.	.	.	.	.	.
8A-\	.	x 3	8cc\	.	.	.	.	.	.	.	.	.	.	.	.	.	.
8B-\	.	x 3	8dd-\	.	.	.	.	.	.	.	.	.	.	.	.	.	.
8G\J	.	x 3	8b-\J	.	.	.	.	.	.	.	.	.	.	.	.	.	.
!	!	!	!	!LO:LB:g=original	!	!	!	!	!	!	!	!	!	!	!	!	!
=14	=14	=14	=14	=14	=14-	=14	=14-	=14	=14	=14-	=14	=14-	=14-	=14	=14-	=14-	=14
4A-\	.	x 3	4cc\	4cc\	.	.	.	.	.	.	.	.	.	.	.	.	.
4r	.	.	4r	8ccc\L	.	.	.	.	.	.	.	.	.	.	.	.	.
.	.	.	.	16bb-\L	.	.	.	.	.	.	.	.	.	.	.	.	.
.	.	.	.	16aa-\JJ	.	.	.	.	.	.	.	.	.	.	.	.	.
*	*	*	*	*tuplet	*	*	*	*	*	*	*	*	*	*	*	*	*
!	!	!	!	!LO:TUP:a:problem=klamra łukowa	!	!	!	!	!	!	!	!	!	!	!	!	!
4r	.	.	4r	24gg\LL	.	.	.	.	.	.	.	.	.	.	.	.	.
.	.	.	.	24ff\	.	.	.	.	.	.	.	.	.	.	.	.	.
.	.	.	.	24gg\	.	.	.	.	.	.	.	.	.	.	.	.	.
.	.	.	.	24bb-\	.	.	.	.	.	.	.	.	.	.	.	.	.
.	.	.	.	24aa-\	.	.	.	.	.	.	.	.	.	.	.	.	.
.	.	.	.	24ff\JJ	.	.	.	.	.	.	.	.	.	.	.	.	.
!	!	!	!LO:LB:g=original	!	!	!	!	!	!	!	!	!	!	!	!	!	!
=15	=15	=15	=15	=15	=15-	=15	=15-	=15	=15	=15-	=15	=15-	=15-	=15	=15-	=15-	=15
8r	.	.	8r	2.ee-T>\	.	.	.	.	.	.	.	.	.	.	.	.	.
16E-\LL	.	8: 3	16g/LL	.	.	.	.	.	.	.	.	.	.	.	.	.	.
16F\JJ	.	x 3	16a-/JJ	.	.	.	.	.	.	.	.	.	.	.	.	.	.
8G\L	.	x 3	8b-\L	.	.	.	.	.	.	.	.	.	.	.	.	.	.
8A-\	.	x 3	8cc\	.	.	.	.	.	.	.	.	.	.	.	.	.	.
8B-\	.	x 3	8dd-\	.	.	.	.	.	.	.	.	.	.	.	.	.	.
8G\J	.	x 3	8b-\J	.	.	.	.	.	.	.	.	.	.	.	.	.	.
!LO:LB:g=original	!	!	!	!	!	!	!	!	!	!	!	!	!	!	!	!	!
=16	=16	=16	=16	=16	=16-	=16	=16-	=16	=16	=16-	=16	=16-	=16-	=16	=16-	=16-	=16
4A-\	.	x 3	8.c/L	8.a-/L	.	.	.	.	.	.	.	.	.	.	.	.	.
.	.	.	16c/Jk	16a-/Jk	.	.	.	.	.	.	.	.	.	.	.	.	.
4AA-/	.	.	4c/	4a-/	.	.	.	.	.	.	.	.	.	.	.	.	.
4r	.	.	4r	4r	.	.	.	.	.	.	.	.	.	.	.	.	.
=17	=17	=17	=17	=17	=17	=17	=17	=17	=17	=17	=17	=17	=17	=17	=17	=17	=17
*	*	*	*tremolo	*tremolo	*	*	*	*	*	*	*	*	*	*	*	*	*
!	!LO:DY:b	!	!	!	!	!	!	!	!LO:DY:b:rj	!	!	!	!	!	!	!	!
4AA-/	p	5 3	8a-/L	8cc/L	2A-\	a-	2a-\	a-	p	2cc\	a-	2.c/	2.e-X\	.	2.a-X/	2.cc\	pp
.	.	.	8c/	8e-/	.	.	.	.	.	.	.	.	.	.	.	.	.
4A-\	.	.	8a-/	8cc/	.	.	.	.	.	.	.	.	.	.	.	.	.
.	.	.	8c/	8e-/	.	.	.	.	.	.	.	.	.	.	.	.	.
4A-\	.	.	8a-/	8cc/	4A-\	-gnus	4a-\	-gnus	.	4cc\	-gnus	.	.	.	.	.	.
.	.	.	8c/J	8e-/J	.	.	.	.	.	.	.	.	.	.	.	.	.
*	*	*	*	*Xtremolo	*	*	*	*	*	*	*	*	*	*	*	*	*
!	!	!	!	!	!	!	!LO:LB:g=original	!	!	!	!	!	!	!	!LO:LB:g=original	!	!
=18	=18	=18	=18	=18	=18	=18	=18	=18	=18	=18	=18	=18	=18	=18	=18	=18	=18
*	*	*	*	*	*	*	*	*	*	*	*	*2\right	*	*	*	*	*
4G\	.	6 3:	8g/L	8dd-/L	4G\	De-	4b-\	De-	.	4dd-\	De-	2.e-X\	2e-X\	.	4b-\	4dd-X\	.
.	.	.	8B-/	8e-/J	.	.	.	.	.	.	.	.	.	.	.	.	.
4G\	.	.	8g/	(>8ddn\L	4G\	-i	4b-\	-i	.	4dd-\	-i	.	.	.	4b-\	4dd-\	.
.	.	.	8B-/	16ee-\Jk)	.	.	.	.	.	.	.	.	.	.	.	.	.
.	.	.	.	16r	.	.	.	.	.	.	.	.	.	.	.	.	.
4r	.	.	8g/	(>8aan\L	4r	.	4r	.	.	4r	.	.	4r	.	4r	4r	.
.	.	.	8B-/J	16bb-\Jk)	.	.	.	.	.	.	.	.	.	.	.	.	.
.	.	.	.	16r	.	.	.	.	.	.	.	.	.	.	.	.	.
=19	=19	=19	=19	=19	=19	=19	=19	=19	=19	=19	=19	=19	=19	=19	=19	=19	=19
*	*	*	*rep	*tremolo	*	*	*	*	*	*	*	*	*	*	*	*	*
!!mixed beam:problem
!	!	!	!	!LO:TX:t=P:problem=mixed beam	!	!	!	!	!	!	!	!LO:SIC:v:s:t=2.e-	!	!	!	!	!
4G\	.	6 3	8g/L	8dd-\L	4G\	De-	4b-\	De-	.	4dd-\	De-	2.e-y\	2.e-X\	.	4b-\	4dd-X\	.
.	.	.	8B-/	8e-/	.	.	.	.	.	.	.	.	.	.	.	.	.
4G\	.	.	8g/	8dd-\	4G\	-i	4b-\	-i	.	4dd-\	-i	.	.	.	4b-\	4dd-\	.
.	.	.	8B-/	8e-/	.	.	.	.	.	.	.	.	.	.	.	.	.
4G\	.	.	8g/	8dd-\	4G\	qui	4b-\	qui	.	4dd-\	qui	.	.	.	4b-\	4dd-\	.
.	.	.	8B-/J	8e-/J	.	.	.	.	.	.	.	.	.	.	.	.	.
*	*	*	*Xrep	*Xtremolo	*	*	*	*	*	*	*	*	*	*	*	*	*
=20	=20	=20	=20	=20	=20	=20	=20	=20	=20	=20	=20	=20	=20	=20	=20	=20	=20
4A-\	.	5 2	8a-/L	8cc/L	4A-\	tol-	4a-\	tol-	.	4cc\	tol-	2c/	2.e-X\	.	4a-X\	4cc\	.
.	.	.	8c/	8e-/J	.	.	.	.	.	.	.	.	.	.	.	.	.
4A-\	.	.	8a-/	(>8ddn\L	4A-\	-lis	4a-\	-lis	.	4cc\	-lis	.	.	.	4a-\	4cc\	.
.	.	.	8c/	16ee-\Jk)	.	.	.	.	.	.	.	.	.	.	.	.	.
.	.	.	.	16r	.	.	.	.	.	.	.	.	.	.	.	.	.
4r	.	.	8a-/	(>8bbn\L	4r	.	4r	.	.	4r	.	4r	.	.	4r	4cc\	.
.	.	.	8c/J	16ccc\Jk)	.	.	.	.	.	.	.	.	.	.	.	.	.
.	.	.	.	16r	.	.	.	.	.	.	.	.	.	.	.	.	.
*	*	*	*Xtremolo	*	*	*	*	*	*	*	*	*	*	*	*	*	*
!	!	!	!	!LO:LB:g=original	!	!	!	!	!	!LO:LB:g=original	!	!	!	!	!	!	!
=21	=21	=21	=21	=21	=21	=21	=21	=21	=21	=21	=21	=21	=21	=21	=21	=21	=21
4F\	.	5 3	8a-/L	8aa-\L	4F\	pe-	4a-\	pe-	.	4cc\	pe-	4C/	4c/	.	4a-X/	4cc\	.
.	.	.	8c/	8cc\J	.	.	.	.	.	.	.	.	.	.	.	.	.
4En\	.	5 3	8g/	8gg\L	4En\	-ca-	4g\	-ca-	.	4b-\	-ca-	4C/	4c/	.	4g/	4b-\	.
.	.	.	8c/	8b-\J	.	.	.	.	.	.	.	.	.	.	.	.	.
4F\	.	x 3	8f/	8ff\L	4F\	-ta	4f\	-ta	.	4a-\	-ta	4C/	4c/	.	4f/	4a-X\	.
.	.	.	8c/J	8a-\J	.	.	.	.	.	.	.	.	.	.	.	.	.
!	!	!	!	!	!	!	!	!	!	!	!	!	!LO:LB:g=original	!	!	!LO:LB:g=original	!
=22	=22	=22	=22	=22	=22	=22	=22	=22	=22	=22	=22	=22	=22	=22	=22	=22	=22
*tremolo	*	*	*	*	*	*	*	*	*	*	*	*tremolo	*tremolo	*	*	*	*
!!mixed beam:problem
!	!LO:DY:b:t=f.	!	!	!LO:TX:t=P:problem=mixed beam	!	!	!	!	!	!	!	!	!	!	!	!	!
8C/L	f	5 n	8g/L	16een\LL	4C/	Mun-	4en\	mun-	.	4g\	mun-	8C/L	8c/L	.	4e/	4cc\	f
.	.	.	.	16c/	.	.	.	.	.	.	.	.	.	.	.	.	.
8C/	.	.	8G/ 8g/	16c/	.	.	.	.	.	.	.	8C/	8c/	.	.	.	.
.	.	.	.	16en/JJ	.	.	.	.	.	.	.	.	.	.	.	.	.
8C/	.	.	8G/ 8g/	16e/LL	4C/	-di	4e\	-di	.	4g\	-di	8C/	8c/	.	4g/	4ee\	.
.	.	.	.	16g/	.	.	.	.	.	.	.	.	.	.	.	.	.
8C/	.	.	8G/J 8en/	16g/	.	.	.	.	.	.	.	8C/	8c/	.	.	.	.
.	.	.	.	16cc/JJ	.	.	.	.	.	.	.	.	.	.	.	.	.
8C/	.	.	8g/L	16cc\LL	8c\	mi-	8g\	mi-	.	8cc\	mi-	8C/	8c/	.	4cc\	4gg\	.
.	.	.	.	16een\	.	.	.	.	.	.	.	.	.	.	.	.	.
8C/J	.	.	8cc/J	16ee\	8c\	-se-	8g\	-se-	.	8cc\	-se-	8C/J	8c/J	.	.	.	.
.	.	.	.	16gg\JJ	.	.	.	.	.	.	.	.	.	.	.	.	.
*	*	*	*	*	*	*	*	*	*	*	*	*Xtremolo	*Xtremolo	*	*	*	*
=23	=23	=23	=23	=23	=23	=23	=23	=23	=23	=23	=23	=23	=23	=23	=23	=23	=23
*	*	*	*tremolo	*	*	*	*	*	*	*	*	*	*	*	*	*	*
8C/L	.	-6 4	8dn/L 8bn/	16aa-X\LL	2c\	-re-	2a-\	-re-	.	2ff\	-re-	2.C/	2.c/	.	2.dd\	2aa-X\	ff
.	.	.	.	16gg\	.	.	.	.	.	.	.	.	.	.	.	.	.
8C/	.	.	8d/ 8b/	16ff\	.	.	.	.	.	.	.	.	.	.	.	.	.
.	.	.	.	16een\JJ	.	.	.	.	.	.	.	.	.	.	.	.	.
8C/	.	.	8d/ 8b/	16ff~>\LL	.	.	.	.	.	.	.	.	.	.	.	.	.
.	.	.	.	16ee\	.	.	.	.	.	.	.	.	.	.	.	.	.
8C/	.	.	8d/ 8b/	16ff\	.	.	.	.	.	.	.	.	.	.	.	.	.
.	.	.	.	16gg\JJ	.	.	.	.	.	.	.	.	.	.	.	.	.
8C/	.	.	8d/ 8b/	16aa-\LL	4c\	-re	4a-\	-re	.	4ff\	-re	.	.	.	.	4ryy	.
.	.	.	.	16aan\	.	.	.	.	.	.	.	.	.	.	.	.	.
8C/J	.	.	8d/J 8b/	16bb-\	.	.	.	.	.	.	.	.	.	.	.	.	.
.	.	.	.	16bbn\JJ	.	.	.	.	.	.	.	.	.	.	.	.	.
*	*	*	*Xtremolo	*	*	*	*	*	*	*	*	*	*	*	*	*	*
!	!	!	!	!	!LO:LB:g=original	!	!	!	!	!	!	!	!	!	!	!	!
=24	=24	=24	=24	=24	=24	=24	=24	=24	=24	=24	=24	=24	=24	=24	=24	=24	=24
*	*	*	*	*	*	*	*	*	*	*	*	*tremolo	*tremolo	*	*	*	*
!!mixed beam:problem
!	!	!	!	!LO:TX:t=P:problem=mixed beam	!	!	!	!	!	!	!	!	!	!	!	!	!
8C/L	.	5 n	8g/L	16ccc\LL	4c\	no-	4g\	no-	.	4een\	no-	8C/L	8c/L	.	4ee\	4gg\	.
.	.	.	.	16G/	.	.	.	.	.	.	.	.	.	.	.	.	.
8C/	.	.	8G/	16G/	.	.	.	.	.	.	.	8C/	8c/	.	.	.	.
.	.	.	.	16c/JJ	.	.	.	.	.	.	.	.	.	.	.	.	.
8C/	.	.	8G/	16c/LL	4c\	-bis	4g\	-bis	.	4ee\	-bis	8C/	8c/	.	4e/	4cc\	.
.	.	.	.	16en/	.	.	.	.	.	.	.	.	.	.	.	.	.
8C/	.	.	8c/J	16e/	.	.	.	.	.	.	.	8C/	8c/	.	.	.	.
.	.	.	.	16g/JJ	.	.	.	.	.	.	.	.	.	.	.	.	.
8C/	.	.	8en/L	16g/LL	8C/	mi-	8en\	mi-	.	8cc\	mi-	8C/	8c/	.	4g/	4ee\	.
.	.	.	.	16cc/	.	.	.	.	.	.	.	.	.	.	.	.	.
8C/J	.	.	8g/J	16cc/	8C/	-se-	8e\	-se-	.	8cc\	-se-	8C/J	8c/J	.	.	.	.
.	.	.	.	16een/JJ	.	.	.	.	.	.	.	.	.	.	.	.	.
*	*	*	*	*	*	*	*	*	*	*	*	*Xtremolo	*Xtremolo	*	*	*	*
!	!	!	!LO:LB:g=original	!LO:LB:g=original	!	!	!	!	!	!	!	!	!	!	!	!	!
=25	=25	=25	=25	=25	=25	=25	=25	=25	=25	=25	=25	=25	=25	=25	=25	=25	=25
*	*	*	*tremolo	*	*	*	*	*	*	*	*	*	*	*	*	*	*
8C/L	.	-6r 4	8A-X/L 8dn	(>16ff\LL	2C/	-re-	2f\	-re-	.	2ddn\	-re-	2.C/	2.c/	.	2.a-X/	2.ff\	.
.	.	.	.	16een\	.	.	.	.	.	.	.	.	.	.	.	.	.
8C/	.	.	8A-/ 8d	16ee-X\	.	.	.	.	.	.	.	.	.	.	.	.	.
!	!	!	!	!LO:SIC:v:s:t=16ddn	!	!	!	!	!	!	!	!	!	!	!	!	!
.	.	.	.	16dd-\JJ	.	.	.	.	.	.	.	.	.	.	.	.	.
8C/	.	.	8A-/ 8d	16dd-X\LL	.	.	.	.	.	.	.	.	.	.	.	.	.
.	.	.	.	16cc\	.	.	.	.	.	.	.	.	.	.	.	.	.
8C/	.	.	8A-/ 8d	16bn\	.	.	.	.	.	.	.	.	.	.	.	.	.
.	.	.	.	(>16b-X\JJ)	.	.	.	.	.	.	.	.	.	.	.	.	.
8C/	.	.	8A-/ 8d	16an\LL	4C/	-re	4f\	-re	.	8dd\	-re	.	.	.	.	.	.
.	.	.	.	16a-X\	.	.	.	.	.	.	.	.	.	.	.	.	.
8C/J	.	.	8A-/J 8d	16g\	.	.	.	.	.	8dd\	no-	.	.	.	.	.	.
.	.	.	.	16f\JJ)	.	.	.	.	.	.	.	.	.	.	.	.	.
*Xtremolo	*	*	*Xtremolo	*	*	*	*	*	*	*	*	*	*	*	*	*	*
!	!	!	!	!	!	!	!LO:LB:g=original	!	!	!	!	!LO:LB:g=original	!	!	!	!	!
=26	=26	=26	=26	=26	=26	=26	=26	=26	=26	=26	=26	=26	=26	=26	=26	=26	=26
!	!	!	!	!	!	!	!LO:TX:t=P:problem=brak tekstu	!	!	!	!	!	!	!	!	!	!
4C/	.	5 2	8c/	8en/L	4C/	no-	8e-\	[no-	.	4cc\	-bis	4C/	4c/	.	4g/	4ee\	.
.	.	.	8r	8cc/	.	.	8e-\	-bis]	.	.	.	.	.	.	.	.	.
4r	.	.	8r	8cc/	4C/	-bis	4r	.	.	4r	.	8r	8r	.	8r	8r	.
.	.	.	8g/L 8b-X/	8e/ 8cc/	.	.	.	.	.	.	.	8c/L	8g\L	.	8b-\L	8ee\L	.
4C/	.	.	8g/ 8b-/	8e/ 8cc/	4r	.	4r	.	.	4r	.	8c/	8g\	.	8b-\	8ee\	.
.	.	.	8g/J 8b-/	8e/J 8cc/	.	.	.	.	.	.	.	8c/J	8g\J	.	8b-\J	8ee\J	.
!LO:LB:g=original	!	!	!	!	!	!	!	!	!	!	!	!	!	!	!	!	!
=27	=27	=27	=27	=27	=27	=27	=27	=27	=27	=27	=27	=27	=27	=27	=27	=27	=27
*k[b-]	*	*	*k[b-]	*k[b-]	*k[b-]	*	*k[b-]	*	*	*k[b-]	*	*k[b-]	*k[b-]	*	*k[b-]	*k[b-]	*
*	*	*	*tuplet	*Xtuplet	*	*	*	*	*	*	*	*	*	*	*	*	*
!	!	!	!	!	!	!	!LO:TX:a:t=8	!	!	!LO:TX:t=P:problem=brak oznaczenia zmiany tonacji	!	!	!	!	!	!	!
!	!	!	!LO:TUP:b:global	!	!LO:TX:t=P:problem=w taktach 27-34 brak tekstu	!	!LO:TX:t=P:problem=brak oznaczenia zmiany tonacji	!	!	!LO:TX:a:t=8	!	!LO:TX:a:t=8	!LO:TX:a:t=5	!	!LO:TX:a:t=5	!LO:TX:a:t=5	!
4F\	.	.	12f/L	12a/L	2F\	.	0.r	.	.	0.r	.	0.r	0.r	.	0.r	0.r	.
.	.	.	12f/	12a/	.	.	.	.	.	.	.	.	.	.	.	.	.
.	.	.	12f/J	12a/J	.	.	.	.	.	.	.	.	.	.	.	.	.
*	*	*	*rep	*	*	*	*	*	*	*	*	*	*	*	*	*	*
8.r	.	.	12f/L	12a/L	.	.	.	.	.	.	.	.	.	.	.	.	.
.	.	.	12f/	12a/	.	.	.	.	.	.	.	.	.	.	.	.	.
.	.	.	12f/J	12a/J	.	.	.	.	.	.	.	.	.	.	.	.	.
32F\LLL	.	.	.	.	.	.	.	.	.	.	.	.	.	.	.	.	.
32G\JJJ	.	.	.	.	.	.	.	.	.	.	.	.	.	.	.	.	.
*	*	*	*Xrep	*	*	*	*	*	*	*	*	*	*	*	*	*	*
*	*	*	*rep	*	*	*	*	*	*	*	*	*	*	*	*	*	*
8An\L	.	.	12f/L	12a/L	4A\	.	.	.	.	.	.	.	.	.	.	.	.
.	.	.	12f/	12a/	.	.	.	.	.	.	.	.	.	.	.	.	.
8F\J	.	.	.	.	.	.	.	.	.	.	.	.	.	.	.	.	.
.	.	.	12f/J	12a/J	.	.	.	.	.	.	.	.	.	.	.	.	.
*	*	*	*Xrep	*	*	*	*	*	*	*	*	*	*	*	*	*	*
=28	=28	=28	=28	=28	=28	=28	=28-	=28	=28	=28-	=28	=28-	=28-	=28	=28-	=28-	=28
4dn\	.	.	12f/L	12a/L	4d\	.	.	.	.	.	.	.	.	.	.	.	.
.	.	.	12f/	12a/	.	.	.	.	.	.	.	.	.	.	.	.	.
.	.	.	12f/J	12a/J	.	.	.	.	.	.	.	.	.	.	.	.	.
*	*	*	*rep	*	*	*	*	*	*	*	*	*	*	*	*	*	*
4c\	.	.	12f/L	12a/L	4c\	.	.	.	.	.	.	.	.	.	.	.	.
.	.	.	12f/	12a/	.	.	.	.	.	.	.	.	.	.	.	.	.
.	.	.	12f/J	12a/J	.	.	.	.	.	.	.	.	.	.	.	.	.
*	*	*	*Xrep	*	*	*	*	*	*	*	*	*	*	*	*	*	*
*	*	*	*rep	*	*	*	*	*	*	*	*	*	*	*	*	*	*
4Bn\	.	.	12f/L	12g/L	4Bn\	.	.	.	.	.	.	.	.	.	.	.	.
.	.	.	12f/	12g/	.	.	.	.	.	.	.	.	.	.	.	.	.
.	.	.	12f/J	12g/J	.	.	.	.	.	.	.	.	.	.	.	.	.
*	*	*	*Xrep	*	*	*	*	*	*	*	*	*	*	*	*	*	*
!	!	!	!	!LO:LB:g=original	!	!	!	!	!	!	!	!	!	!	!	!	!
=29	=29	=29	=29	=29	=29	=29	=29-	=29	=29	=29-	=29	=29-	=29-	=29	=29-	=29-	=29
8B-\	.	.	12e/L	12g/L	4B-\	.	.	.	.	.	.	.	.	.	.	.	.
.	.	.	12e/	12g/	.	.	.	.	.	.	.	.	.	.	.	.	.
8r	.	.	.	.	.	.	.	.	.	.	.	.	.	.	.	.	.
.	.	.	12e/J	12g/J	.	.	.	.	.	.	.	.	.	.	.	.	.
*	*	*	*rep	*	*	*	*	*	*	*	*	*	*	*	*	*	*
8E\	.	5 x	12e/L	12g/L	8.G\	.	.	.	.	.	.	.	.	.	.	.	.
.	.	.	12e/	12g/	.	.	.	.	.	.	.	.	.	.	.	.	.
8r	.	.	.	.	.	.	.	.	.	.	.	.	.	.	.	.	.
.	.	.	12e/J	12g/J	.	.	.	.	.	.	.	.	.	.	.	.	.
.	.	.	.	.	16E\	.	.	.	.	.	.	.	.	.	.	.	.
*	*	*	*Xrep	*	*	*	*	*	*	*	*	*	*	*	*	*	*
8F\	.	x 3	12A/L	12f/L	8F\	.	.	.	.	.	.	.	.	.	.	.	.
.	.	.	12A/	12f/	.	.	.	.	.	.	.	.	.	.	.	.	.
8r	.	.	.	.	8BBn/	.	.	.	.	.	.	.	.	.	.	.	.
.	.	.	12A/J	12f/J	.	.	.	.	.	.	.	.	.	.	.	.	.
!	!	!	!	!	!LO:LB:g=original	!	!	!	!	!	!	!	!	!	!	!	!
=30	=30	=30	=30	=30	=30	=30	=30-	=30	=30	=30-	=30	=30-	=30-	=30	=30-	=30-	=30
4C/	.	6 4	12G/L	12e/L	4C/	.	.	.	.	.	.	.	.	.	.	.	.
.	.	.	12G/	12e/	.	.	.	.	.	.	.	.	.	.	.	.	.
.	.	.	12G/J	12e/J	.	.	.	.	.	.	.	.	.	.	.	.	.
*	*	*	*rep	*rep	*	*	*	*	*	*	*	*	*	*	*	*	*
4C/	.	5 3	12G/L	12e/L	4C/	.	.	.	.	.	.	.	.	.	.	.	.
.	.	.	12G/	12e/	.	.	.	.	.	.	.	.	.	.	.	.	.
.	.	.	12G/J	12e/J	.	.	.	.	.	.	.	.	.	.	.	.	.
*	*	*	*Xrep	*Xrep	*	*	*	*	*	*	*	*	*	*	*	*	*
*	*	*	*rep	*rep	*	*	*	*	*	*	*	*	*	*	*	*	*
4r	.	.	12G/L	12e/L	4r	.	.	.	.	.	.	.	.	.	.	.	.
.	.	.	12G/	12e/	.	.	.	.	.	.	.	.	.	.	.	.	.
.	.	.	12G/J	12e/J	.	.	.	.	.	.	.	.	.	.	.	.	.
*	*	*	*Xrep	*Xrep	*	*	*	*	*	*	*	*	*	*	*	*	*
=31	=31	=31	=31	=31	=31	=31	=31-	=31	=31	=31-	=31	=31-	=31-	=31	=31-	=31-	=31
*	*	*	*tremolo	*tremolo	*	*	*	*	*	*	*	*	*	*	*	*	*
4C/	.	4 2	32B-/LLL	32G/LLL 32e/	2E\	.	0.r	.	.	0.r	.	0.r	2.r	.	2.r	2.r	.
.	.	.	32B-/	32G/ 32e/	.	.	.	.	.	.	.	.	.	.	.	.	.
.	.	.	32B-/	32G/ 32e/	.	.	.	.	.	.	.	.	.	.	.	.	.
.	.	.	32B-/	32G/ 32e/	.	.	.	.	.	.	.	.	.	.	.	.	.
.	.	.	32B-/	32G/ 32e/	.	.	.	.	.	.	.	.	.	.	.	.	.
.	.	.	32B-/	32G/ 32e/	.	.	.	.	.	.	.	.	.	.	.	.	.
.	.	.	32B-/	32G/ 32e/	.	.	.	.	.	.	.	.	.	.	.	.	.
.	.	.	32B-/	32G/ 32e/	.	.	.	.	.	.	.	.	.	.	.	.	.
4r	.	.	32B-/	32G/ 32e/	.	.	.	.	.	.	.	.	.	.	.	.	.
.	.	.	32B-/	32G/ 32e/	.	.	.	.	.	.	.	.	.	.	.	.	.
.	.	.	32B-/	32G/ 32e/	.	.	.	.	.	.	.	.	.	.	.	.	.
.	.	.	32B-/	32G/ 32e/	.	.	.	.	.	.	.	.	.	.	.	.	.
.	.	.	32B-/	32G/ 32e/	.	.	.	.	.	.	.	.	.	.	.	.	.
.	.	.	32B-/	32G/ 32e/	.	.	.	.	.	.	.	.	.	.	.	.	.
.	.	.	32B-/	32G/ 32e/	.	.	.	.	.	.	.	.	.	.	.	.	.
.	.	.	32B-/	32G/ 32e/	.	.	.	.	.	.	.	.	.	.	.	.	.
4r	.	.	32B-/	32G/ 32e/	16E\LL	.	.	.	.	.	.	.	.	.	.	.	.
.	.	.	32B-/	32G/ 32e/	.	.	.	.	.	.	.	.	.	.	.	.	.
.	.	.	32B-/	32G/ 32e/	16F\	.	.	.	.	.	.	.	.	.	.	.	.
.	.	.	32B-/	32G/ 32e/	.	.	.	.	.	.	.	.	.	.	.	.	.
.	.	.	32B-/	32G/ 32e/	16G\JJ	.	.	.	.	.	.	.	.	.	.	.	.
.	.	.	32B-/	32G/ 32e/	.	.	.	.	.	.	.	.	.	.	.	.	.
.	.	.	32B-/	32G/ 32e/	16An\	.	.	.	.	.	.	.	.	.	.	.	.
.	.	.	32B-/JJJ	32G/JJJ 32e/	.	.	.	.	.	.	.	.	.	.	.	.	.
=32	=32	=32	=32	=32	=32	=32	=32-	=32	=32	=32-	=32	=32-	=32	=32	=32	=32	=32
4r	.	.	32B-/LLL	32G/LLL 32e/	4B-\	.	.	.	.	.	.	.	4r	.	4r	4r	.
.	.	.	32B-/	32G/ 32e/	.	.	.	.	.	.	.	.	.	.	.	.	.
.	.	.	32B-/	32G/ 32e/	.	.	.	.	.	.	.	.	.	.	.	.	.
.	.	.	32B-/	32G/ 32e/	.	.	.	.	.	.	.	.	.	.	.	.	.
.	.	.	32B-/	32G/ 32e/	.	.	.	.	.	.	.	.	.	.	.	.	.
.	.	.	32B-/	32G/ 32e/	.	.	.	.	.	.	.	.	.	.	.	.	.
.	.	.	32B-/	32G/ 32e/	.	.	.	.	.	.	.	.	.	.	.	.	.
.	.	.	32B-/	32G/ 32e/	.	.	.	.	.	.	.	.	.	.	.	.	.
8.r	.	.	32B-/	32G/ 32e/	4E\	.	.	.	.	.	.	.	4r	.	4r	4r	.
.	.	.	32B-/	32G/ 32e/	.	.	.	.	.	.	.	.	.	.	.	.	.
.	.	.	32B-/	32G/ 32e/	.	.	.	.	.	.	.	.	.	.	.	.	.
.	.	.	32B-/	32G/ 32e/	.	.	.	.	.	.	.	.	.	.	.	.	.
.	.	.	32B-/	32G/ 32e/	.	.	.	.	.	.	.	.	.	.	.	.	.
.	.	7: 5:	32B-/	32G/ 32e/	.	.	.	.	.	.	.	.	.	.	.	.	.
16C/KL	.	.	32B-/	32G/ 32e/	.	.	.	.	.	.	.	.	.	.	.	.	.
.	.	.	32B-/	32G/ 32e/	.	.	.	.	.	.	.	.	.	.	.	.	.
!	!	!	!	!	!	!	!	!	!	!	!	!	!LO:TX:t=P:problem=all\right&colon; global	!	!	!	!
8.E/	.	.	32B-/	32G/ 32e/	4r	.	.	.	.	.	.	.	4g\	.	4g/	4gg\	.
.	.	.	32B-/	32G/ 32e/	.	.	.	.	.	.	.	.	.	.	.	.	.
.	.	.	32B-/	32G/ 32e/	.	.	.	.	.	.	.	.	.	.	.	.	.
.	.	.	32B-/	32G/ 32e/	.	.	.	.	.	.	.	.	.	.	.	.	.
.	.	.	32B-/	32G/ 32e/	.	.	.	.	.	.	.	.	.	.	.	.	.
.	.	.	32B-/	32G/ 32e/	.	.	.	.	.	.	.	.	.	.	.	.	.
16G/Jk	.	.	32B-/	32G/ 32e/	.	.	.	.	.	.	.	.	.	.	.	.	.
.	.	.	32B-/JJJ	32G/JJJ 32e/	.	.	.	.	.	.	.	.	.	.	.	.	.
!	!	!	!	!	!	!	!	!	!	!	!	!	!	!	!LO:LB:g=original	!	!
=33	=33	=33	=33	=33	=33	=33	=33-	=33	=33	=33-	=33	=33-	=33	=33	=33	=33	=33
!	!	!	!	!	!	!	!	!	!	!	!	!	!LO:TX:a:t=1	!	!LO:TX:a:t=1	!LO:TX:a:t=1	!
4B-\	.	.	32B-/LLL	32G/LLL 32e/	2E\	.	.	.	.	.	.	.	2.r	.	2.r	2.r	.
.	.	.	32B-/	32G/ 32e/	.	.	.	.	.	.	.	.	.	.	.	.	.
.	.	.	32B-/	32G/ 32e/	.	.	.	.	.	.	.	.	.	.	.	.	.
.	.	.	32B-/	32G/ 32e/	.	.	.	.	.	.	.	.	.	.	.	.	.
.	.	.	32B-/	32G/ 32e/	.	.	.	.	.	.	.	.	.	.	.	.	.
.	.	.	32B-/	32G/ 32e/	.	.	.	.	.	.	.	.	.	.	.	.	.
.	.	.	32B-/	32G/ 32e/	.	.	.	.	.	.	.	.	.	.	.	.	.
.	.	.	32B-/	32G/ 32e/	.	.	.	.	.	.	.	.	.	.	.	.	.
4r	.	.	32B-/	32G/ 32e/	.	.	.	.	.	.	.	.	.	.	.	.	.
.	.	.	32B-/	32G/ 32e/	.	.	.	.	.	.	.	.	.	.	.	.	.
.	.	.	32B-/	32G/ 32e/	.	.	.	.	.	.	.	.	.	.	.	.	.
.	.	.	32B-/	32G/ 32e/	.	.	.	.	.	.	.	.	.	.	.	.	.
.	.	.	32B-/	32G/ 32e/	.	.	.	.	.	.	.	.	.	.	.	.	.
.	.	.	32B-/	32G/ 32e/	.	.	.	.	.	.	.	.	.	.	.	.	.
.	.	.	32B-/	32G/ 32e/	.	.	.	.	.	.	.	.	.	.	.	.	.
.	.	.	32B-/	32G/ 32e/	.	.	.	.	.	.	.	.	.	.	.	.	.
*	*	*	*	*	*Xtuplet	*	*	*	*	*	*	*	*	*	*	*	*
!	!	!	!	!	!LO:TUP:a:problem=klamra łukowa	!	!	!	!	!	!	!	!	!	!	!	!
4r	.	.	32B-/	32G/ 32e/	24E\LL	.	.	.	.	.	.	.	.	.	.	.	.
.	.	.	32B-/	32G/ 32e/	.	.	.	.	.	.	.	.	.	.	.	.	.
.	.	.	.	.	24F\	.	.	.	.	.	.	.	.	.	.	.	.
.	.	.	32B-/	32G/ 32e/	.	.	.	.	.	.	.	.	.	.	.	.	.
.	.	.	.	.	24G\	.	.	.	.	.	.	.	.	.	.	.	.
.	.	.	32B-/	32G/ 32e/	.	.	.	.	.	.	.	.	.	.	.	.	.
.	.	.	32B-/	32G/ 32e/	24A\	.	.	.	.	.	.	.	.	.	.	.	.
.	.	.	32B-/	32G/ 32e/	.	.	.	.	.	.	.	.	.	.	.	.	.
.	.	.	.	.	24B-\JJ	.	.	.	.	.	.	.	.	.	.	.	.
.	.	.	32B-/	32G/ 32e/	.	.	.	.	.	.	.	.	.	.	.	.	.
.	.	.	.	.	24cn\	.	.	.	.	.	.	.	.	.	.	.	.
.	.	.	32B-/JJJ	32G/JJJ 32e/	.	.	.	.	.	.	.	.	.	.	.	.	.
=34	=34	=34	=34	=34	=34	=34	=34-	=34	=34	=34-	=34	=34-	=34	=34	=34	=34	=34
4r	.	.	32B-/LLL	32G/LLL 32en/	4d\	.	.	.	.	.	.	.	4r	.	4r	4r	.
.	.	.	32B-/	32G/ 32e/	.	.	.	.	.	.	.	.	.	.	.	.	.
.	.	.	32B-/	32G/ 32e/	.	.	.	.	.	.	.	.	.	.	.	.	.
.	.	.	32B-/	32G/ 32e/	.	.	.	.	.	.	.	.	.	.	.	.	.
.	.	.	32B-/	32G/ 32e/	.	.	.	.	.	.	.	.	.	.	.	.	.
.	.	.	32B-/	32G/ 32e/	.	.	.	.	.	.	.	.	.	.	.	.	.
.	.	.	32B-/	32G/ 32e/	.	.	.	.	.	.	.	.	.	.	.	.	.
.	.	.	32B-/	32G/ 32e/	.	.	.	.	.	.	.	.	.	.	.	.	.
!LO:N:vis=8.	!	!	!	!	!	!	!	!	!	!	!	!	!	!	!	!	!
8r	.	.	32B-/	32G/ 32e/	4E\	.	.	.	.	.	.	.	4r	.	4r	4r	.
.	.	.	32B-/	32G/ 32e/	.	.	.	.	.	.	.	.	.	.	.	.	.
.	.	.	32B-/	32G/ 32e/	.	.	.	.	.	.	.	.	.	.	.	.	.
.	.	.	32B-/	32G/ 32e/	.	.	.	.	.	.	.	.	.	.	.	.	.
8C/L	.	7: 5:	32B-/	32G/ 32e/	.	.	.	.	.	.	.	.	.	.	.	.	.
.	.	.	32B-/	32G/ 32e/	.	.	.	.	.	.	.	.	.	.	.	.	.
.	.	.	32B-/	32G/ 32e/	.	.	.	.	.	.	.	.	.	.	.	.	.
.	.	.	32B-/	32G/ 32e/	.	.	.	.	.	.	.	.	.	.	.	.	.
8E/	.	.	32B-/	32G/ 32e/	4r	.	.	.	.	.	.	.	4g\	.	4g/	4gg\	.
.	.	.	32B-/	32G/ 32e/	.	.	.	.	.	.	.	.	.	.	.	.	.
.	.	.	32B-/	32G/ 32e/	.	.	.	.	.	.	.	.	.	.	.	.	.
.	.	.	32B-/	32G/ 32e/	.	.	.	.	.	.	.	.	.	.	.	.	.
8G/J	.	.	32B-/	32G/ 32e/	.	.	.	.	.	.	.	.	.	.	.	.	.
.	.	.	32B-/	32G/ 32e/	.	.	.	.	.	.	.	.	.	.	.	.	.
.	.	.	32B-/	32G/ 32e/	.	.	.	.	.	.	.	.	.	.	.	.	.
.	.	.	32B-/JJJ	32G/JJJ 32e/	.	.	.	.	.	.	.	.	.	.	.	.	.
*	*	*	*Xtremolo	*Xtremolo	*	*	*	*	*	*	*	*	*	*	*	*	*
!LO:LB:g=original	!	!	!LO:LB:g=original	!	!LO:LB:g=original	!	!	!	!	!	!	!	!	!	!	!	!
=35	=35	=35	=35	=35	=35	=35	=35	=35	=35	=35	=35	=35	=35	=35	=35	=35	=35
4F\	.	5 3	12c/L 12a/	12ff\L	2F\	mi-	2c\	mi-	.	2an\	mi-	2.A/	2.f\	.	2.a\	2.cc\	.
.	.	.	12c/ 12a/	12ee\	.	.	.	.	.	.	.	.	.	.	.	.	.
.	.	.	12c/J 12a/	12ff\J	.	.	.	.	.	.	.	.	.	.	.	.	.
*	*	*	*rep	*	*	*	*	*	*	*	*	*	*	*	*	*	*
4F\	.	.	12c/L 12a/	12aa\L	.	.	.	.	.	.	.	.	.	.	.	.	.
.	.	.	12c/ 12a/	12ee\	.	.	.	.	.	.	.	.	.	.	.	.	.
.	.	.	12c/J 12a/	12ff\J	.	.	.	.	.	.	.	.	.	.	.	.	.
*	*	*	*Xrep	*	*	*	*	*	*	*	*	*	*	*	*	*	*
*	*	*	*rep	*	*	*	*	*	*	*	*	*	*	*	*	*	*
4F\	.	.	12c/L 12a/	12ccc\L	4F\	-se-	4c\	-se-	.	4a\	-se-	.	.	.	.	.	.
.	.	.	12c/ 12a/	12ee\	.	.	.	.	.	.	.	.	.	.	.	.	.
.	.	.	12c/J 12a/	12ff\J	.	.	.	.	.	.	.	.	.	.	.	.	.
*	*	*	*Xrep	*	*	*	*	*	*	*	*	*	*	*	*	*	*
=36	=36	=36	=36	=36	=36	=36	=36	=36	=36	=36	=36	=36	=36	=36	=36	=36	=36
!LO:TX:t=P:problem=niewyraźne cyfrowanie	!	!	!	!	!	!	!	!	!	!	!	!	!	!	!	!	!
4BB-/	.	8 5	12g/L	12gg\L	2BB-/	-re-	2dn\	-re-	.	2g\	-re-	2.g\	2.g\	.	2b-\	2dd\	.
.	.	.	12g/	12ff#X\	.	.	.	.	.	.	.	.	.	.	.	.	.
.	.	.	12g/J	12gg\J	.	.	.	.	.	.	.	.	.	.	.	.	.
*	*	*	*rep	*	*	*	*	*	*	*	*	*	*	*	*	*	*
4BB-/	.	.	12g/L	12bb-\L	.	.	.	.	.	.	.	.	.	.	.	.	.
.	.	.	12g/	12ff#\	.	.	.	.	.	.	.	.	.	.	.	.	.
.	.	.	12g/J	12gg\J	.	.	.	.	.	.	.	.	.	.	.	.	.
*	*	*	*Xrep	*	*	*	*	*	*	*	*	*	*	*	*	*	*
*	*	*	*Xtuplet	*	*	*	*	*	*	*	*	*	*	*	*	*	*
!	!	!	!	!	!	!	!	!	!	!	!	!	!	!	!LO:TX:t=P:4\right:problem	!	!
4BBn/	.	.	12a-X/L	12ddd\L	4BBn/	-re	4f\	-re	.	4ddn\	-re	.	.	.	4bn\	4dd\	.
.	.	.	12a-/	12ff#\	.	.	.	.	.	.	.	.	.	.	.	.	.
.	.	.	12a-/J	12ddd\J	.	.	.	.	.	.	.	.	.	.	.	.	.
!	!	!	!	!	!	!	!	!	!	!LO:LB:g=original	!	!	!	!	!	!	!
=37	=37	=37	=37	=37	=37	=37	=37	=37	=37	=37	=37	=37	=37	=37	=37	=37	=37
*	*	*	*tuplet	*	*	*	*	*	*	*	*	*	*	*	*	*	*
4C/	.	6 4	12an/L	12ccc\L	2.C/	no-	(>2f\	no-	.	4cc\	no-	2f\	2a\	.	2a\	2cc\	.
.	.	.	12f/	12aa\	.	.	.	.	.	.	.	.	.	.	.	.	.
.	.	.	12c/J	12ff\J	.	.	.	.	.	.	.	.	.	.	.	.	.
*	*	*	*Xtuplet	*	*	*	*	*	*	*	*	*	*	*	*	*	*
4C/	.	.	12f/L 12a/	12cc\L	.	.	.	.	.	4an\	.	.	.	.	.	.	.
.	.	.	12f/ 12a/	12cc\	.	.	.	.	.	.	.	.	.	.	.	.	.
.	.	.	12f/J 12a/	12cc\J	.	.	.	.	.	.	.	.	.	.	.	.	.
4C/	.	5 3	12g/L 12b-/	12aa\L	.	.	4en\)	.	.	4g\	.	4c/	4g\	.	4b-X\	4ee\	.
.	.	.	12g/ 12b-/	12dd\	.	.	.	.	.	.	.	.	.	.	.	.	.
.	.	.	12g/J 12b-/	12ee\J	.	.	.	.	.	.	.	.	.	.	.	.	.
!	!	!	!	!LO:LB:g=original	!	!	!	!	!	!	!	!	!	!	!	!	!
=38	=38	=38	=38	=38	=38	=38	=38	=38	=38	=38	=38	=38	=38	=38	=38	=38	=38
*	*	*	*	*^	*	*	*	*	*	*	*	*	*	*	*	*	*
!!mixed beam:problem
!LO:TX:t=P:problem=mixed beam	!	!	!	!LO:TX:t=P:problem=mixed beam	!	!LO:TX:t=P:problem=all\left&colon; global	!	!	!	!	!	!	!	!	!	!	!	!
8.F\L	.	x 3	8.f/L 8.a/	8.ff\L	2ryy	4F\	-bis	4f\	-bis	.	4a\	-bis	8.A/L	8.f\L	f	8.a\L	8.ff\L	.
16FF/Jk	.	.	16c/Jk 16g/	16A/Jk 16f/	.	.	.	.	.	.	.	.	16A/Jk	16f\Jk	.	16a\Jk	16ff\Jk	.
4FF/	.	.	4c/	4A/ 4f/	.	4r	.	4r	.	.	4r	.	4A/	4f\	.	4a\	4ff\	.
*	*	*	*	*	*cue	*	*	*	*	*	*	*	*	*	*	*	*	*
!LO:TX:a:t=Recitativo	!	!	!	!	!	!	!	!	!	!	!	!	!	!	!	!	!	!
4r	.	.	4r	4r	8f\	8F\	.	4r	.	.	4r	.	4r	4r	.	4r	4r	.
.	.	.	.	.	8f\	8F\	.	.	.	.	.	.	.	.	.	.	.	.
=39	=39	=39	=39	=39	=39	=39	=39	=39	=39	=39	=39	=39	=39	=39	=39	=39	=39	=39
!	!	!	!	!	!	!	!	!LO:TX:a:t=4	!	!	!LO:TX:a:t=4	!	!LO:TX:a:t=4	!LO:TX:a:t=4	!	!LO:TX:a:t=4	!LO:TX:a:t=4	!
4r	.	.	4r	4r	4f\	4F\	.	1.r	.	.	1.r	.	1.r	1.r	.	1.r	1.r	.
8.r	.	.	8.r	8.r	4g-X\	4G-X\	.	.	.	.	.	.	.	.	.	.	.	.
!LO:TX:t=P:problem=16\right	!	!	!	!	!	!	!	!	!	!	!	!	!	!	!	!	!	!
16E-X\	.	6 x	16c/ 16e-X/	16A-X/ 16g-/	.	.	.	.	.	.	.	.	.	.	.	.	.	.
!LO:TX:t=P:problem=4\middle	!	!	!	!	!	!	!	!	!	!	!	!	!	!	!	!	!	!
4E-\	.	.	4c/ 4e-/	4A-/ 4g-/	4ryy	8.r	.	.	.	.	.	.	.	.	.	.	.	.
.	.	.	.	.	.	16G-\	.	.	.	.	.	.	.	.	.	.	.	.
=40	=40	=40	=40	=40	=40	=40	=40	=40-	=40	=40	=40-	=40	=40-	=40-	=40	=40-	=40-	=40
!	!	!	!	!	!	!LO:TX:t=P:problem=all\right&colon; global	!	!	!	!	!	!	!	!	!	!	!	!
4r	.	.	4r	4r	8g-X\L	4En\	.	.	.	.	.	.	.	.	.	.	.	.
.	.	.	.	.	8en\J	.	.	.	.	.	.	.	.	.	.	.	.	.
8.r	.	.	8.r	8.r	4f\	4F\	.	.	.	.	.	.	.	.	.	.	.	.
16D-X\	.	x 3	16d-X/	16A-X/ 16f/	.	.	.	.	.	.	.	.	.	.	.	.	.	.
4r	.	.	4d-/	4A-/ 4f/	8f\L	8.r	.	.	.	.	.	.	.	.	.	.	.	.
.	.	.	.	.	8g-\J	.	.	.	.	.	.	.	.	.	.	.	.	.
*	*	*	*	*	*	*cue	*	*	*	*	*	*	*	*	*	*	*	*
!	!	!	!	!	!	!LO:TX:b:t=pa	!	!	!	!	!	!	!	!	!	!	!	!
.	.	.	.	.	.	32F\LLL	.	.	.	.	.	.	.	.	.	.	.	.
.	.	.	.	.	.	32G\JJJ	.	.	.	.	.	.	.	.	.	.	.	.
*	*	*	*	*	*	*Xcue	*	*	*	*	*	*	*	*	*	*	*	*
!	!	!	!LO:LB:g=original	!	!	!LO:LB:g=original	!	!	!	!	!	!	!	!	!	!	!	!
=41	=41	=41	=41	=41	=41	=41	=41	=41-	=41	=41	=41-	=41	=41-	=41-	=41	=41-	=41-	=41
!	!	!	!	!	!	!LO:TX:t=P:problem=all\left&colon; global	!	!	!	!	!	!	!	!	!	!	!	!
2.r	.	.	2.r	2.r	8a-X\L	4.A-X\	.	2.r	.	.	2.r	.	2.r	2.r	.	2.r	2.r	.
.	.	.	.	.	16b-\L	.	.	.	.	.	.	.	.	.	.	.	.	.
.	.	.	.	.	16a-\JJ	.	.	.	.	.	.	.	.	.	.	.	.	.
.	.	.	.	.	4g\	.	.	.	.	.	.	.	.	.	.	.	.	.
.	.	.	.	.	.	16B-\LL	.	.	.	.	.	.	.	.	.	.	.	.
.	.	.	.	.	.	16A-\JJ	.	.	.	.	.	.	.	.	.	.	.	.
.	.	.	.	.	4f\	8G\	.	.	.	.	.	.	.	.	.	.	.	.
.	.	.	.	.	.	8F\	.	.	.	.	.	.	.	.	.	.	.	.
*	*	*	*	*v	*v	*	*	*	*	*	*	*	*	*	*	*	*	*
!LO:LB:g=original	!	!	!	!	!	!	!	!	!	!	!	!	!	!	!	!	!
=42	=42	=42	=42	=42	=42	=42	=42	=42	=42	=42-	=42	=42	=42	=42	=42	=42	=42
!	!	!	!	!	!LO:TX:t=P:problem=all\right&colon; global	!	!	!	!	!	!	!	!	!	!	!	!
!LO:TX:t=P:problem=nadmiarowy takt w Baſso	!	!	!LO:TX:t=P:problem=nadmiarowy takt w Baſso	!LO:TX:t=P:problem=nadmiarowy takt w Baſso	!	!	!LO:TX:t=P:problem=nadmiarowy takt w Baſso	!	!	!LO:TX:t=P:problem=nadmiarowy takt w Baſso	!	!LO:TX:t=P:problem=nadmiarowy takt w Baſso	!LO:TX:t=P:problem=nadmiarowy takt w Baſso	!	!LO:TX:t=P:problem=nadmiarowy takt w Baſso	!LO:TX:t=P:problem=nadmiarowy takt w Baſso	!
2.ryy	.	.	2.ryy	2.ryy	(>2c\	.	2.ryy	.	.	2.ryy	.	2.ryy	2.ryy	.	2.ryy	2.ryy	.
*	*	*	*	*	*cue	*	*	*	*	*	*	*	*	*	*	*	*
.	.	.	.	.	24Bn\LL	.	.	.	.	.	.	.	.	.	.	.	.
.	.	.	.	.	24A\	.	.	.	.	.	.	.	.	.	.	.	.
.	.	.	.	.	24G\	.	.	.	.	.	.	.	.	.	.	.	.
.	.	.	.	.	24F\	.	.	.	.	.	.	.	.	.	.	.	.
.	.	.	.	.	24E\	.	.	.	.	.	.	.	.	.	.	.	.
.	.	.	.	.	24D\JJ)	.	.	.	.	.	.	.	.	.	.	.	.
*	*	*	*	*	*Xcue	*	*	*	*	*	*	*	*	*	*	*	*
=43	=43	=43	=43	=43	=43	=43	=43-	=43	=43	=43	=43	=43-	=43-	=43	=43-	=43-	=43
*	*	*	*	*^	*	*	*	*	*	*	*	*	*	*	*	*	*
!	!	!	!	!	!	!	!	!LO:TX:b:t=Dona nobis ut Kirie allo	!	!	!	!	!	!LO:TX:t=P:problem=fermata powyżej i poniżej	!	!LO:TX:t=P:problem=fermata powyżej i poniżej	!	!
2.C;>/	.	5 3	2.c;>/	2G;</ 2en/	8cc/L	2.C;>/	.	2.r	.	.	2.r	.	2.r	2.r	.	2.r	2.r	.
.	.	.	.	.	16cc/L	.	.	.	.	.	.	.	.	.	.	.	.	.
.	.	.	.	.	16a/	.	.	.	.	.	.	.	.	.	.	.	.	.
.	.	.	.	.	16g/	.	.	.	.	.	.	.	.	.	.	.	.	.
.	.	.	.	.	16f/	.	.	.	.	.	.	.	.	.	.	.	.	.
.	.	.	.	.	16e/	.	.	.	.	.	.	.	.	.	.	.	.	.
.	.	.	.	.	16d/JJ	.	.	.	.	.	.	.	.	.	.	.	.	.
.	.	.	.	4ryy	4c/	.	.	.	.	.	.	.	.	.	.	.	.	.
*	*	*	*	*v	*v	*	*	*	*	*	*	*	*	*	*	*	*	*
==	==	==	==	==	==	==	==	==	==	==;>	==	==;;	==;;	==	==;;	==;>	==
*-	*-	*-	*-	*-	*-	*-	*-	*-	*-	*-	*-	*-	*-	*-	*-	*-	*-
!!!system-decoration: [(g1)][(g2)][(g3)][(g4)]g5
!!!ENC: Filip Voros
!!!END: 2021-12-03
!!!EED: Jędrzej Mróz
!!!EEV: 2021-12-14
!!!YEC: Copyright 2022 Narodowy Instytut Fryderyka Chopina (https://polishscores.org)
!!!YEM: License CC-BY-4.0 (https://creativecommons.org/licenses/by/4.0)
